**harm	**harte	**timestamp	**phrase	**leadinstrument	**kern
*M4/4	*M4/4	*	*	*	*
*E:	*E:	*	*	*	*E:
1r;	N	0	.	r	1r;
=1	=1	=1	=1	=1	=1
*>A_intro	*>A_intro	*>A_intro	*>A_intro	*>A_intro	*>A_intro
1I	E:maj	0.232	newline	piano	1E 1g# 1b
=2	=2	=2	=2	=2	=2
1I	E:maj	2.119	.	piano	1E 1g# 1b
=3	=3	=3	=3	=3	=3
1I	E:maj	4.005	.	piano	1E 1g# 1b
=4	=4	=4	=4	=4	=4
1I	E:maj	5.892	.	piano	1E 1g# 1b
=5	=5	=5	=5	=5	=5
1I	E:maj	7.779	.	piano	1E 1g# 1b
=6	=6	=6	=6	=6	=6
1I	E:maj	9.665	.	piano	1E 1g# 1b
=7	=7	=7	=7	=7	=7
1I	E:maj	11.552	.	piano	1E 1g# 1b
=8	=8	=8	=8	=8	=8
1I	E:maj	13.439	.	piano	1E 1g# 1b
=9	=9	=9	=9	=9	=9
1I	E:maj	15.325	.	piano	1E 1g# 1b
=10	=10	=10	=10	=10	=10
1I	E:maj	17.212	.	piano	1E 1g# 1b
=11	=11	=11	=11	=11	=11
2I	E:maj	19.098	newline	piano	2E 2g# 2b
2IV	A:maj	20.004	.	piano	2A 2cc# 2ee
=12	=12	=12	=12	=12	=12
2.IV	A:maj	20.91	.	piano	2A 2cc# 2ee
4V	B:sus4(b7,9)	22.269	.	piano	4B 4dd# 4ff#
=13	=13	=13	=13	=13	=13
*>B_verse	*>B_verse	*>B_verse	*>B_verse	*>B_verse	*>B_verse
1I	E:maj	22.722	newline	voice	1E 1g# 1b
=14	=14	=14	=14	=14	=14
2-VII	D:maj	24.536	.	voice	2D 2f# 2a
2IV	A:maj	25.443	.	voice	2A 2cc# 2ee
=15	=15	=15	=15	=15	=15
1V7	B:7	26.35	.	voice	1B 1dd# 1ff# 1aa
=16	=16	=16	=16	=16	=16
2.V7	B:7	28.164	.	voice	2B 2dd# 2ff# 2aa
4ii7	F#:min7	29.524	.	voice	4F# 4a 4cc# 4ee
=17	=17	=17	=17	=17	=17
1IV	A:maj	29.978	.	voice	1A 1cc# 1ee
=18	=18	=18	=18	=18	=18
1-VII	D:maj	31.792	.	voice	1D 1f# 1a
=19	=19	=19	=19	=19	=19
1ii7	F#:min7	33.606	.	voice	1F# 1a 1cc# 1ee
=20	=20	=20	=20	=20	=20
1vi7	C#:min7	35.42	.	voice	1C# 1e 1g# 1b
=21	=21	=21	=21	=21	=21
1II7	F#:7	37.234	newline	voice	1F# 1a# 1cc# 1ee
=22	=22	=22	=22	=22	=22
1II7	F#:7	39.085	.	voice	1F# 1a# 1cc# 1ee
=23	=23	=23	=23	=23	=23
2.II7	F#:7	40.937	.	voice	2F# 2a# 2cc# 2ee
4V	B:sus4(b7,9)	42.326	.	voice	4B 4dd# 4ff#
=24	=24	=24	=24	=24	=24
*>C_chorus	*>C_chorus	*>C_chorus	*>C_chorus	*>C_chorus	*>C_chorus
1I	E:maj	42.789	newline	voice	1E 1g# 1b
=25	=25	=25	=25	=25	=25
1-VII	D:maj	44.613	.	voice	1D 1f# 1a
=26	=26	=26	=26	=26	=26
1iii7	G#:min7	46.437	.	voice	1G# 1b 1dd# 1ff#
=27	=27	=27	=27	=27	=27
1VI7	C#:7	48.261	.	voice	1C# 1e# 1g# 1b
=28	=28	=28	=28	=28	=28
1ii7	F#:min7	50.085	.	voice	1F# 1a 1cc# 1ee
=29	=29	=29	=29	=29	=29
1ii7	F#:min7	51.909	.	voice	1F# 1a 1cc# 1ee
=30	=30	=30	=30	=30	=30
1I	E:maj	53.733	newline	voice	1E 1g# 1b
=31	=31	=31	=31	=31	=31
1I	E:maj	55.542	.	voice	1E 1g# 1b
=32	=32	=32	=32	=32	=32
2I	E:maj	57.351	.	voice	2E 2g# 2b
2IV	A:maj	58.256	.	voice	2A 2cc# 2ee
=33	=33	=33	=33	=33	=33
2.IV	A:maj	59.16	.	voice	2A 2cc# 2ee
4V	B:sus4(b7,9)	60.517	.	voice	4B 4dd# 4ff#
=34	=34	=34	=34	=34	=34
*>B_verse	*>B_verse	*>B_verse	*>B_verse	*>B_verse	*>B_verse
1I	E:maj	60.97	newline	voice	1E 1g# 1b
=35	=35	=35	=35	=35	=35
2-VII	D:maj	62.79	.	voice	2D 2f# 2a
2IV	A:maj	63.7	.	voice	2A 2cc# 2ee
=36	=36	=36	=36	=36	=36
1V7	B:7	64.61	.	voice	1B 1dd# 1ff# 1aa
=37	=37	=37	=37	=37	=37
2.V7	B:7	66.43	.	voice	2B 2dd# 2ff# 2aa
4ii7	F#:min7	67.796	.	voice	4F# 4a 4cc# 4ee
=38	=38	=38	=38	=38	=38
1IV	A:maj	68.251	.	voice	1A 1cc# 1ee
=39	=39	=39	=39	=39	=39
1-VII	D:maj	70.071	.	voice	1D 1f# 1a
=40	=40	=40	=40	=40	=40
1ii7	F#:min7	71.891	.	voice	1F# 1a 1cc# 1ee
=41	=41	=41	=41	=41	=41
1vi7	C#:min7	73.711	.	voice	1C# 1e 1g# 1b
=42	=42	=42	=42	=42	=42
1II7	F#:7	75.532	newline	voice	1F# 1a# 1cc# 1ee
=43	=43	=43	=43	=43	=43
1II7	F#:7	77.364	.	voice	1F# 1a# 1cc# 1ee
=44	=44	=44	=44	=44	=44
2.II7	F#:7	79.196	.	voice	2F# 2a# 2cc# 2ee
4V	B:sus4(b7,9)	80.57	.	voice	4B 4dd# 4ff#
=45	=45	=45	=45	=45	=45
*>C_chorus	*>C_chorus	*>C_chorus	*>C_chorus	*>C_chorus	*>C_chorus
1I	E:maj	81.028	newline	voice	1E 1g# 1b
=46	=46	=46	=46	=46	=46
1-VII	D:maj	82.842	.	voice	1D 1f# 1a
=47	=47	=47	=47	=47	=47
1iii7	G#:min7	84.657	.	voice	1G# 1b 1dd# 1ff#
=48	=48	=48	=48	=48	=48
1VI7	C#:7	86.472	.	voice	1C# 1e# 1g# 1b
=49	=49	=49	=49	=49	=49
1ii7	F#:min7	88.287	.	voice	1F# 1a 1cc# 1ee
=50	=50	=50	=50	=50	=50
1ii7	F#:min7	90.102	.	voice	1F# 1a 1cc# 1ee
=51	=51	=51	=51	=51	=51
1I	E:maj	91.917	newline	voice	1E 1g# 1b
=52	=52	=52	=52	=52	=52
1I	E:maj	93.735	.	voice	1E 1g# 1b
=53	=53	=53	=53	=53	=53
2I	E:maj	95.554	.	voice	2E 2g# 2b
2IV	A:maj	96.463	.	voice	2A 2cc# 2ee
=54	=54	=54	=54	=54	=54
2.IV	A:maj	97.372	.	voice	2A 2cc# 2ee
4V	B:sus4(b7,9)	98.736	.	voice	4B 4dd# 4ff#
=55	=55	=55	=55	=55	=55
*>B_solo	*>B_solo	*>B_solo	*>B_solo	*>B_solo	*>B_solo
1I	E:maj	99.191	newline	saxophone	1E 1g# 1b
=56	=56	=56	=56	=56	=56
2-VII	D:maj	101.017	.	saxophone	2D 2f# 2a
2IV	A:maj	101.93	.	saxophone	2A 2cc# 2ee
=57	=57	=57	=57	=57	=57
1V7	B:7	102.843	.	saxophone	1B 1dd# 1ff# 1aa
=58	=58	=58	=58	=58	=58
2.V7	B:7	104.669	.	saxophone	2B 2dd# 2ff# 2aa
4ii7	F#:min7	106.038	.	saxophone	4F# 4a 4cc# 4ee
=59	=59	=59	=59	=59	=59
1IV	A:maj	106.495	.	saxophone	1A 1cc# 1ee
=60	=60	=60	=60	=60	=60
1-VII	D:maj	108.321	.	saxophone	1D 1f# 1a
=61	=61	=61	=61	=61	=61
1ii7	F#:min7	110.147	.	saxophone	1F# 1a 1cc# 1ee
=62	=62	=62	=62	=62	=62
1vi7	C#:min7	111.973	.	saxophone	1C# 1e 1g# 1b
=63	=63	=63	=63	=63	=63
1II7	F#:7	113.799	newline	saxophone	1F# 1a# 1cc# 1ee
=64	=64	=64	=64	=64	=64
1II7	F#:7	115.636	.	saxophone	1F# 1a# 1cc# 1ee
=65	=65	=65	=65	=65	=65
2.II7	F#:7	117.474	.	saxophone	2F# 2a# 2cc# 2ee
4V	B:sus4(b7,9)	118.852	.	saxophone	4B 4dd# 4ff#
=66	=66	=66	=66	=66	=66
*>C2_solo	*>C2_solo	*>C2_solo	*>C2_solo	*>C2_solo	*>C2_solo
1I	E:maj	119.311	newline	saxophone	1E 1g# 1b
=67	=67	=67	=67	=67	=67
1-VII	D:maj	121.12	.	saxophone	1D 1f# 1a
=68	=68	=68	=68	=68	=68
1iii7	G#:min7	122.929	.	saxophone	1G# 1b 1dd# 1ff#
=69	=69	=69	=69	=69	=69
1VI7	C#:7	124.737	.	saxophone	1C# 1e# 1g# 1b
=70	=70	=70	=70	=70	=70
1ii7	F#:min7	126.546	.	saxophone	1F# 1a 1cc# 1ee
=71	=71	=71	=71	=71	=71
1ii7	F#:min7	128.355	.	saxophone	1F# 1a 1cc# 1ee
=72	=72	=72	=72	=72	=72
*>A_solo	*>A_solo	*>A_solo	*>A_solo	*>A_solo	*>A_solo
1I	E:maj	130.164	newline	.	1E 1g# 1b
=73	=73	=73	=73	=73	=73
1I	E:maj	131.976	.	.	1E 1g# 1b
=74	=74	=74	=74	=74	=74
1I	E:maj	133.787	.	.	1E 1g# 1b
=75	=75	=75	=75	=75	=75
1I	E:maj	135.599	.	.	1E 1g# 1b
=76	=76	=76	=76	=76	=76
1I	E:maj	137.411	.	.	1E 1g# 1b
=77	=77	=77	=77	=77	=77
1I	E:maj	139.222	.	.	1E 1g# 1b
=78	=78	=78	=78	=78	=78
1I	E:maj	141.034	.	.	1E 1g# 1b
=79	=79	=79	=79	=79	=79
1I	E:maj	142.846	.	.	1E 1g# 1b
=80	=80	=80	=80	=80	=80
1I	E:maj	144.657	.	.	1E 1g# 1b
=81	=81	=81	=81	=81	=81
1I	E:maj	146.469	.	.	1E 1g# 1b
=82	=82	=82	=82	=82	=82
2I	E:maj	148.281	newline	saxophone	2E 2g# 2b
2IV	A:maj	149.189	.	saxophone	2A 2cc# 2ee
=83	=83	=83	=83	=83	=83
2.IV	A:maj	150.098	.	saxophone	2A 2cc# 2ee
4V	B:sus4(b7,9)	151.461	.	saxophone	4B 4dd# 4ff#
=84	=84	=84	=84	=84	=84
*>B_verse	*>B_verse	*>B_verse	*>B_verse	*>B_verse	*>B_verse
1I	E:maj	151.915	newline	voice	1E 1g# 1b
=85	=85	=85	=85	=85	=85
2-VII	D:maj	153.725	.	voice	2D 2f# 2a
2IV	A:maj	154.63	.	voice	2A 2cc# 2ee
=86	=86	=86	=86	=86	=86
1V7	B:7	155.535	.	voice	1B 1dd# 1ff# 1aa
=87	=87	=87	=87	=87	=87
2.V7	B:7	157.345	.	voice	2B 2dd# 2ff# 2aa
4ii7	F#:min7	158.703	.	voice	4F# 4a 4cc# 4ee
=88	=88	=88	=88	=88	=88
1IV	A:maj	159.155	.	voice	1A 1cc# 1ee
=89	=89	=89	=89	=89	=89
1-VII	D:maj	160.965	.	voice	1D 1f# 1a
=90	=90	=90	=90	=90	=90
1ii7	F#:min7	162.775	.	voice	1F# 1a 1cc# 1ee
=91	=91	=91	=91	=91	=91
1vi7	C#:min7	164.585	.	voice	1C# 1e 1g# 1b
=92	=92	=92	=92	=92	=92
1II7	F#:7	166.395	newline	voice	1F# 1a# 1cc# 1ee
=93	=93	=93	=93	=93	=93
1II7	F#:7	168.254	.	voice	1F# 1a# 1cc# 1ee
=94	=94	=94	=94	=94	=94
2.II7	F#:7	170.113	.	voice	2F# 2a# 2cc# 2ee
4V	B:sus4(b7,9)	171.508	.	voice	4B 4dd# 4ff#
=95	=95	=95	=95	=95	=95
*>C2_chorus	*>C2_chorus	*>C2_chorus	*>C2_chorus	*>C2_chorus	*>C2_chorus
1I	E:maj	171.973	newline	voice	1E 1g# 1b
=96	=96	=96	=96	=96	=96
1-VII	D:maj	173.795	.	voice	1D 1f# 1a
=97	=97	=97	=97	=97	=97
1iii7	G#:min7	175.617	.	voice	1G# 1b 1dd# 1ff#
=98	=98	=98	=98	=98	=98
1VI7	C#:7	177.438	.	voice	1C# 1e# 1g# 1b
=99	=99	=99	=99	=99	=99
1ii7	F#:min7	179.26	.	voice	1F# 1a 1cc# 1ee
=100	=100	=100	=100	=100	=100
1ii7	F#:min7	181.082	.	voice	1F# 1a 1cc# 1ee
=101	=101	=101	=101	=101	=101
*>A2_instrumental	*>A2_instrumental	*>A2_instrumental	*>A2_instrumental	*>A2_instrumental	*>A2_instrumental
1I	E:maj	182.904	newline	.	1E 1g# 1b
=102	=102	=102	=102	=102	=102
1I	E:maj	184.704	.	.	1E 1g# 1b
=103	=103	=103	=103	=103	=103
1I	E:maj	186.503	.	.	1E 1g# 1b
=104	=104	=104	=104	=104	=104
1I	E:maj	188.303	.	.	1E 1g# 1b
=105	=105	=105	=105	=105	=105
1I	E:maj	190.103	.	.	1E 1g# 1b
=106	=106	=106	=106	=106	=106
1I	E:maj	191.902	.	.	1E 1g# 1b
=107	=107	=107	=107	=107	=107
2I	E:maj	193.702	newline	.	2E 2g# 2b
2IV	A:maj	194.597	.	.	2A 2cc# 2ee
=108	=108	=108	=108	=108	=108
2.IV	A:maj	195.491	.	.	2A 2cc# 2ee
4V	B:sus4(b7,9)	196.834	.	.	4B 4dd# 4ff#
=109	=109	=109	=109	=109	=109
*>B_solo	*>B_solo	*>B_solo	*>B_solo	*>B_solo	*>B_solo
1I	E:maj	197.281	newline	guitar	1E 1g# 1b
=110	=110	=110	=110	=110	=110
2-VII	D:maj	199.089	.	guitar	2D 2f# 2a
2IV	A:maj	199.992	.	guitar	2A 2cc# 2ee
=111	=111	=111	=111	=111	=111
1V7	B:7	200.896	.	guitar	1B 1dd# 1ff# 1aa
=112	=112	=112	=112	=112	=112
2.V7	B:7	202.704	.	guitar	2B 2dd# 2ff# 2aa
4ii7	F#:min7	204.06	.	guitar	4F# 4a 4cc# 4ee
=113	=113	=113	=113	=113	=113
1IV	A:maj	204.511	.	guitar	1A 1cc# 1ee
=114	=114	=114	=114	=114	=114
1-VII	D:maj	206.319	.	guitar	1D 1f# 1a
=115	=115	=115	=115	=115	=115
1ii7	F#:min7	208.127	.	guitar	1F# 1a 1cc# 1ee
=116	=116	=116	=116	=116	=116
1vi7	C#:min7	209.934	.	guitar	1C# 1e 1g# 1b
=117	=117	=117	=117	=117	=117
1II7	F#:7	211.742	newline	guitar	1F# 1a# 1cc# 1ee
=118	=118	=118	=118	=118	=118
1II7	F#:7	213.568	.	guitar	1F# 1a# 1cc# 1ee
=119	=119	=119	=119	=119	=119
2.II7	F#:7	215.394	.	guitar	2F# 2a# 2cc# 2ee
4V	B:sus4(b7,9)	216.764	.	guitar	4B 4dd# 4ff#
=120	=120	=120	=120	=120	=120
*>C2_chorus	*>C2_chorus	*>C2_chorus	*>C2_chorus	*>C2_chorus	*>C2_chorus
1I	E:maj	217.221	newline	voice	1E 1g# 1b
=121	=121	=121	=121	=121	=121
1-VII	D:maj	219.029	.	voice	1D 1f# 1a
=122	=122	=122	=122	=122	=122
1iii7	G#:min7	220.837	.	voice	1G# 1b 1dd# 1ff#
=123	=123	=123	=123	=123	=123
1VI7	C#:7	222.645	.	voice	1C# 1e# 1g# 1b
=124	=124	=124	=124	=124	=124
1ii7	F#:min7	224.453	.	voice	1F# 1a 1cc# 1ee
=125	=125	=125	=125	=125	=125
1ii7	F#:min7	226.261	.	voice	1F# 1a 1cc# 1ee
=126	=126	=126	=126	=126	=126
*>D_outro_fadeout	*>D_outro_fadeout	*>D_outro_fadeout	*>D_outro_fadeout	*>D_outro_fadeout	*>D_outro_fadeout
1I	E:maj	228.069	newline	.	1E 1g# 1b
=127	=127	=127	=127	=127	=127
1I	E:maj	229.803	.	.	1E 1g# 1b
=128	=128	=128	=128	=128	=128
1I	E:maj	231.537	.	.	1E 1g# 1b
=129	=129	=129	=129	=129	=129
1I	E:maj	233.271	.	.	1E 1g# 1b
=130	=130	=130	=130	=130	=130
1I	E:maj	235.005	.	.	1E 1g# 1b
=131	=131	=131	=131	=131	=131
1I	E:maj	236.738	.	.	1E 1g# 1b
=132	=132	=132	=132	=132	=132
1I	E:maj	238.472	.	.	1E 1g# 1b
=133	=133	=133	=133	=133	=133
1I	E:maj	240.206	.	.	1E 1g# 1b
=134	=134	=134	=134	=134	=134
1I	E:maj	241.94	.	.	1E 1g# 1b
=135	=135	=135	=135	=135	=135
1I	E:maj	243.674	.	.	1E 1g# 1b
=136	=136	=136	=136	=136	=136
1I	E:maj	245.408	.	.	1E 1g# 1b
=137	=137	=137	=137	=137	=137
1I	E:maj	247.142	.	.	1E 1g# 1b
=138	=138	=138	=138	=138	=138
1I	E:maj	248.875	.	.	1E 1g# 1b
1r;	N	250.609	.	r	1r;
1r;	N	254.116	.	r	1r;
*-	*-	*-	*-	*-	*-
!!!OTL: This Song
!!!COC: George Harrison
!!!BillboardChartDate: 1977/01/15
!!!BillboardPeak: 25
!!!BillboardWeeksOnChart: 11
!!!SampleTargetRank: 23
!!!SampleActualRank: 25
!!!SampleID#: 0361
!!!RDF**harmony: **recip + pitch class of root + harmonic quality
!!!RDF**harte: Chris Harte's syntax, used by MIREX
!!!RDF**phrase: newline = linebreak in original McGill transcription
!!!RDF**timestamp: McGill audio timestamp in seconds
!!!RDF**leadinstrument: original McGill primary instrumentation annotation
!!!RDT: 2017/01/12/
!!!ENC: Nathaniel Condit-Schultz
!!!EST: Awating manual error checking and editing.
